X: 11594
T: Eel In The Sink, The
R: reel
M: 4/4
K: Amixolydian
|e2AB cdec|d2 BGdG (3Bcd|eAAB cdef|gedB eA A2|
e2AB cdec|d2 BGdG (3Bcd|eAAB cdef|gedB eA A2||
a2ea aged|(3Bcd ef g3g|a2ea agab|gedB eA A2|
a2ea aged|(3Bcd ef g3g|afge fdef|(3gfe dB BA A2||

